X: 31
T:Workshop Reel
% Nottingham Music Database
S:Hugh Barwell, via PR
M:4/4
L:1/4
K:D
de |:"D"f3/2d/2 Ad|"G"BG2B|"E7"e3/2d/2 cB|"A"A3^A|"G"B2 dB|"D"AF2d|\
 [1"E7"e3/2d/2 cB|"A7"A2 de:|
 [2"A7"czez|"D"dz"E7"cd|:"A"ee "Edim""a#"e/2d/2c|"Bm"df "G#7"f/2e/2^d|\
"C#m"e2 c2|
"F#7"^A3c|"Bm"d2 "E7"e3/2d/2|"A"c2 d3/2c/2| [1"B7"B3/2A/2 ^GA|"E7"B3c/2d/2:|
 [2"E7"B3/2A/2 B^G|"A"A3"A7"f/2g/2|:"D"a3/2f/2 da|"A7"ge2g|"Bm"f3/2e/2 df|
"F#m"ec2c|"G"B2 b2|"D"a3/2f/2 df| [1"A"ea "E7"^gb|"A"a3"A7"f/2g/2:|[2"A7"eg fe|"D"d2 ||


